X: 21121
T: Mrs. Lumsden of Achindores
C: Marshall
R: strathspey
B: RSCDS 21-12(I)
Z: 1997 by John Chambers <jc:trillian.mit.edu>
N: RSCDS has this tune in Eb.
M: C
L: 1/8
%--------------------
K: G
|: [fd] \
| "G"[g2B2] d>B G>d B<G | "Am"E<A AB cB/A/ "D7"FE/D/ \
| "G"g2 d>B G>d B>G | "Am"EA "D7"FE/D/ "G"[G2B,2] G :|
|: d/e/f \
| "G"[gB]<g gb "Am"e>a "D7"fd | "G"g<g gb d<g BG \
| "Am"c<e "G"B<d "Am"E<A "D7"F<D | "Am"E>A "D7"FE/D/ "G"[G2B,2] [GB,] :|
%%center Book21/21121-Mrs_Lumsden_of_Achindores-1.abc

%%sep 1 1 500
%%sep 1 1 500

